outputs/icons/action/lock_alt_round.svg

<svg xmlns="http://www.w3.org/2000/svg" width="1200" height="1200" fill="none"><g clip-path="url(#a)"><path fill="#000" d="M900 400h-50V300c0-138-112-250-250-250S350 162 350 300v100h-50c-55 0-100 45-100 100v500c0 55 45 100 100 100h600c55 0 100-45 100-100V500c0-55-45-100-100-100M600 850c-55 0-100-45-100-100s45-100 100-100 100 45 100 100-45 100-100 100M450 400V300c0-83 67-150 150-150s150 67 150 150v100z"/></g><defs><clipPath id="a"><path fill="#fff" d="M0 0h1200v1200H0z"/></clipPath></defs></svg>

<svg width="1200" height="1200" viewBox="0 0 1200 1200" fill="none" xmlns="http://www.w3.org/2000/svg"><g clip-path="url(#clip0_223_1874)"><path d="M900 400H850V300C850 162 738 50 600 50C462 50 350 162 350 300V400H300C245 400 200 445 200 500V1000C200 1055 245 1100 300 1100H900C955 1100 1000 1055 1000 1000V500C1000 445 955 400 900 400ZM600 850C545 850 500 805 500 750C500 695 545 650 600 650C655 650 700 695 700 750C700 805 655 850 600 850ZM450 400V300C450 217 517 150 600 150C683 150 750 217 750 300V400H450Z" fill="#1D1E23"/></g><defs><clipPath id="clip0_223_1874"><path width="24" fill="white" d="M0 0H1200V1200H0V0z"/></clipPath></defs></svg>
